build/img/svg/facebook.svg

<svg width="20" height="20" viewBox="0 0 20 20" fill="none" xmlns="http://www.w3.org/2000/svg">
<path d="M11.4909 19.9999V10.877H14.4392L14.8807 7.32156H11.4909V5.05165C11.4909 4.0224 11.766 3.32073 13.1872 3.32073L15 3.31997V0.139921C14.6865 0.0967679 13.6104 0 12.3586 0C9.74505 0 7.95587 1.65682 7.95587 4.69978V7.32167H5V10.8771H7.95587V20H11.4909V19.9999Z" fill="black"/>
</svg>

<svg width="20" height="20" fill="none" xmlns="http://www.w3.org/2000/svg"><path d="M11.49 20v-9.123h2.95l.44-3.555h-3.39v-2.27c0-1.03.276-1.731 1.697-1.731L15 3.32V.14C14.687.097 13.61 0 12.359 0 9.745 0 7.956 1.657 7.956 4.7v2.622H5v3.555h2.956V20h3.535z" fill="#000"/></svg>
